svg/charges/warhammer/minotaurs-symbol.svg

<?xml version="1.0" encoding="UTF-8" standalone="no"?>
<svg
   xmlns:dc="http://purl.org/dc/elements/1.1/"
   xmlns:cc="http://creativecommons.org/ns#"
   xmlns:rdf="http://www.w3.org/1999/02/22-rdf-syntax-ns#"
   xmlns:svg="http://www.w3.org/2000/svg"
   xmlns="http://www.w3.org/2000/svg"
   xmlns:sodipodi="http://sodipodi.sourceforge.net/DTD/sodipodi-0.dtd"
   xmlns:inkscape="http://www.inkscape.org/namespaces/inkscape"
   version="1.1"
   id="Layer_4"
   x="0px"
   y="0px"
   viewBox="0 0 972.50446 811.29993"
   xml:space="preserve"
   sodipodi:docname="minotaurs-symbol.svg"
   width="972.50446"
   height="811.29993"
   inkscape:version="0.92.3 (2405546, 2018-03-11)"><defs
   id="defs22" /><sodipodi:namedview
   pagecolor="#ffffff"
   bordercolor="#666666"
   borderopacity="1"
   objecttolerance="10"
   gridtolerance="10"
   guidetolerance="10"
   inkscape:pageopacity="0"
   inkscape:pageshadow="2"
   inkscape:window-width="640"
   inkscape:window-height="480"
   id="namedview20"
   showgrid="false"
   inkscape:zoom="0.236"
   inkscape:cx="488.50223"
   inkscape:cy="388.27"
   inkscape:window-x="0"
   inkscape:window-y="0"
   inkscape:window-maximized="0"
   inkscape:current-layer="Layer_4" /><metadata
   id="metadata97"><rdf:RDF><cc:Work
       rdf:about=""><dc:format>image/svg+xml</dc:format><dc:type
         rdf:resource="http://purl.org/dc/dcmitype/StillImage" /><dc:title></dc:title><dc:creator><cc:Agent><dc:title>http://bakadesign.dk/warhammer-40-000-icons/</dc:title></cc:Agent></dc:creator></cc:Work></rdf:RDF></metadata>
<g
   style="fill:#ff0000"
   id="g17"
   transform="translate(-11.497766,-76.970081)">
		<g
   id="g15">
			<path
   d="M 13.67,312.97 C 36.78,209.59 118.27,167.02 284.9,181.61 V 77.01 C 44.77,74.64 0.17,178.08 13.67,312.97 Z"
   id="path3"
   inkscape:connector-curvature="0" />
			<path
   d="m 447.87,811.16 c -0.01,0.56 -0.02,1.13 0.01,1.69 0.07,-0.51 0.05,-1.09 -0.01,-1.69 z"
   id="path5"
   inkscape:connector-curvature="0" />
			<path
   d="m 295.85,78.22 v 105.82 c 79.06,20.68 58.38,59.6 10.95,99.73 4.3,68.89 39.47,121.5 111.9,154.47 3.65,138.66 -4.87,211.63 -69.33,284.61 11.04,-6.85 96.2,66.44 98.51,88.31 0.41,-22.42 32.08,-42.12 49.88,-43.31 17.8,1.19 49.47,20.89 49.88,43.31 2.31,-21.87 87.47,-95.16 98.51,-88.31 -64.46,-72.98 -72.98,-145.95 -69.33,-284.61 72.43,-32.97 107.6,-85.58 111.9,-154.47 -47.43,-40.14 -68.11,-79.06 10.95,-99.73 V 78.22 c -136.09,8.2 -270.58,7.61 -403.82,0 z m 48.02,216.63 c -0.29,-1.72 1.38,-3.12 3.02,-2.52 31.88,11.67 66.52,38.22 87.62,85.1 0.04,0.32 0.09,0.64 0.14,0.96 -42.79,-10.06 -82.38,-34.22 -90.78,-83.54 z m 114.96,458.41 c -17.82,-23.51 -37.12,-38.63 -58.38,-51.08 24.98,-20.22 54.62,-61.03 36.56,-298.74 16.87,115.83 38.72,217.83 21.82,349.82 z M 561,377.43 c 21.1,-46.88 55.74,-73.43 87.62,-85.1 1.64,-0.6 3.31,0.8 3.02,2.52 -8.4,49.32 -47.99,73.47 -90.77,83.53 0.03,-0.31 0.08,-0.63 0.13,-0.95 z m -2.51,26 c -18.06,237.72 11.58,278.52 36.56,298.74 -21.26,12.46 -40.56,27.57 -58.38,51.08 -16.9,-131.98 4.95,-233.98 21.82,-349.82 z"
   id="path7"
   inkscape:connector-curvature="0" />
			<path
   d="m 710.6,77.01 v 104.6 C 877.23,167.01 958.72,209.58 981.83,312.97 995.33,178.08 950.73,74.64 710.6,77.01 Z"
   id="path9"
   inkscape:connector-curvature="0" />
			<path
   d="m 547.62,812.86 c 0.03,-0.57 0.02,-1.13 0.01,-1.69 -0.06,0.59 -0.08,1.17 -0.01,1.69 z"
   id="path11"
   inkscape:connector-curvature="0" />
			<path
   d="m 497.75,773.94 c -21.5,0 -38.92,17.43 -38.92,38.92 0,10.95 38.92,75.41 38.92,75.41 0,0 38.92,-63.25 38.92,-75.41 0,-21.5 -17.43,-38.92 -38.92,-38.92 z"
   id="path13"
   inkscape:connector-curvature="0" />
		</g>

</g></svg>

<?xml version="1.0" encoding="utf-8"?>
<svg version="1.1" id="Layer_4" 
	 xmlns="http://www.w3.org/2000/svg"    xmlns:dc="http://purl.org/dc/elements/1.1/"
   xmlns:cc="http://creativecommons.org/ns#"
   xmlns:rdf="http://www.w3.org/1999/02/22-rdf-syntax-ns#" xmlns:xlink="http://www.w3.org/1999/xlink" x="0px" y="0px" viewBox="0 0 1000 1000"
	 style="enable-background:new 0 0 1000 1000;" xml:space="preserve"><metadata
   id="metadata97"><rdf:RDF><cc:Work
       rdf:about=""><dc:format>image/svg+xml</dc:format><dc:type
         rdf:resource="http://purl.org/dc/dcmitype/StillImage" /><dc:title></dc:title><dc:creator><cc:Agent><dc:title>http://bakadesign.dk/warhammer-40-000-icons/</dc:title></cc:Agent></dc:creator></cc:Work></rdf:RDF></metadata>
<g style="fill:#ff0000">
		<g>
			<path d="M13.67,312.97c23.11-103.38,104.6-145.95,271.23-131.36V77.01C44.77,74.64,0.17,178.08,13.67,312.97z"/>
			<path d="M447.87,811.16c-0.01,0.56-0.02,1.13,0.01,1.69C447.95,812.34,447.93,811.76,447.87,811.16z"/>
			<path d="M295.85,78.22v105.82c79.06,20.68,58.38,59.6,10.95,99.73c4.3,68.89,39.47,121.5,111.9,154.47
				c3.65,138.66-4.87,211.63-69.33,284.61c11.04-6.85,96.2,66.44,98.51,88.31c0.41-22.42,32.08-42.12,49.88-43.31
				c17.8,1.19,49.47,20.89,49.88,43.31c2.31-21.87,87.47-95.16,98.51-88.31c-64.46-72.98-72.98-145.95-69.33-284.61
				c72.43-32.97,107.6-85.58,111.9-154.47c-47.43-40.14-68.11-79.06,10.95-99.73V78.22C563.58,86.42,429.09,85.83,295.85,78.22z
				 M343.87,294.85c-0.29-1.72,1.38-3.12,3.02-2.52c31.88,11.67,66.52,38.22,87.62,85.1c0.04,0.32,0.09,0.64,0.14,0.96
				C391.86,368.33,352.27,344.17,343.87,294.85z M458.83,753.26c-17.82-23.51-37.12-38.63-58.38-51.08
				c24.98-20.22,54.62-61.03,36.56-298.74C453.88,519.27,475.73,621.27,458.83,753.26z M561,377.43
				c21.1-46.88,55.74-73.43,87.62-85.1c1.64-0.6,3.31,0.8,3.02,2.52c-8.4,49.32-47.99,73.47-90.77,83.53
				C560.9,378.07,560.95,377.75,561,377.43z M558.49,403.43c-18.06,237.72,11.58,278.52,36.56,298.74
				c-21.26,12.46-40.56,27.57-58.38,51.08C519.77,621.27,541.62,519.27,558.49,403.43z"/>
			<path d="M710.6,77.01v104.6c166.63-14.6,248.12,27.97,271.23,131.36C995.33,178.08,950.73,74.64,710.6,77.01z"/>
			<path d="M547.62,812.86c0.03-0.57,0.02-1.13,0.01-1.69C547.57,811.76,547.55,812.34,547.62,812.86z"/>
			<path d="M497.75,773.94c-21.5,0-38.92,17.43-38.92,38.92c0,10.95,38.92,75.41,38.92,75.41s38.92-63.25,38.92-75.41
				C536.67,791.36,519.24,773.94,497.75,773.94z"/>
		</g>

</g></svg>
